svgs/sharp-light/oil-can.svg

<svg xmlns="http://www.w3.org/2000/svg" viewBox="0 0 640 512"><!--! Font Awesome Pro 6.6.0 by @fontawesome - https://fontawesome.com License - https://fontawesome.com/license (Commercial License) Copyright 2024 Fonticons, Inc. --><path d="M272 96l80 0 0-32L160 64l0 32 80 0 0 64-112 0-32 0-64 0L0 160l0 32L0 304l96 48 0 32 0 32 32 0 256 0 48 0L640 192l-32-32L448 192l-64-32-112 0 0-64zM32 192l64 0 0 124.2-64-32L32 192zm401.7 28.6l9.8 4.9 10.8-2.2 138.7-27.7L418 384l-34 0-256 0 0-16 0-35.8L128 192l248.4 0 57.2 28.6z"/></svg>

<svg xmlns="http://www.w3.org/2000/svg" viewBox="0 0 640 512"><!--! Font Awesome Pro 6.4.0 by @fontawesome - https://fontawesome.com License - https://fontawesome.com/license (Commercial License) Copyright 2023 Fonticons, Inc. --><path d="M272 96h80V64H160V96h80v64H128 96 32 0v32V304l96 48v32 32h32H384h48L640 192l-32-32L448 192l-64-32H272V96zM32 192H96V316.2l-64-32V192zm401.7 28.6l9.8 4.9 10.8-2.2 138.7-27.7L418 384H384 128V368 332.2 192H376.4l57.2 28.6z"/></svg>
